Newaita-dark/apps/32/com.github.torikulhabib.nino.svg

<svg height="32" viewBox="0 0 32 32" width="32" xmlns="http://www.w3.org/2000/svg" xmlns:xlink="http://www.w3.org/1999/xlink"><linearGradient id="a" gradientTransform="matrix(.00833413 0 0 .062506 7.805955 13.438785)" gradientUnits="userSpaceOnUse" x1="254" x2="254" y1="233.5" y2="254.666672"><stop offset="0" stop-opacity=".27451"/><stop offset="1" stop-opacity="0"/></linearGradient><linearGradient id="b"><stop offset="0" stop-opacity=".313726"/><stop offset=".222222" stop-opacity=".27451"/><stop offset="1" stop-opacity="0"/></linearGradient><radialGradient id="c" cx="450.908936" cy="189.579361" gradientTransform="matrix(.00000017 -.0781325 -.140638 -.0000001 37.577176 63.595333)" gradientUnits="userSpaceOnUse" r="21.166656" xlink:href="#b"/><radialGradient id="d" cx="450.908936" cy="189.579361" gradientTransform="matrix(-.00000017 .0781325 .140638 .0000001 -17.731532 -7.527479)" gradientUnits="userSpaceOnUse" r="21.166656" xlink:href="#b"/><radialGradient id="e" cx="450.908936" cy="189.579361" gradientTransform="matrix(-.00000017 -.0781325 .140638 -.0000001 -17.731532 63.595333)" gradientUnits="userSpaceOnUse" r="21.166656" xlink:href="#b"/><radialGradient id="f" cx="450.908936" cy="189.579361" gradientTransform="matrix(.00000017 .0781325 -.140638 .0000001 37.577174 -7.527479)" gradientUnits="userSpaceOnUse" r="21.166656" xlink:href="#b"/><linearGradient id="g" gradientUnits="userSpaceOnUse" x1="9.9228275" x2="9.9228275" y1="28.033934" y2="2.89610399997"><stop offset="0" stop-color="#66bb6a"/><stop offset="1" stop-color="#81c784"/></linearGradient><linearGradient id="h" gradientUnits="userSpaceOnUse" x1="21.8302205" x2="21.8302205" y1="28.033934" y2="2.89610500006"><stop offset="0" stop-color="#f44336"/><stop offset="1" stop-color="#ef5350"/></linearGradient><radialGradient id="i" cx="450.908936" cy="189.579361" gradientTransform="matrix(.00000013 -.0781325 -.105479 -.0000001 41.578689 63.595333)" gradientUnits="userSpaceOnUse" r="21.166656" xlink:href="#b"/><radialGradient id="j" cx="450.908936" cy="189.579361" gradientTransform="matrix(-.00000013 .0781325 .105479 .0000001 2.08173 -7.527479)" gradientUnits="userSpaceOnUse" r="21.166656" xlink:href="#b"/><radialGradient id="k" cx="450.908936" cy="189.579361" gradientTransform="matrix(-.00000013 -.0781325 .105479 -.0000001 2.08173 63.595333)" gradientUnits="userSpaceOnUse" r="21.166656" xlink:href="#b"/><radialGradient id="l" cx="450.908936" cy="189.579361" gradientTransform="matrix(.00000013 .0781325 -.105479 .0000001 41.578688 -7.527479)" gradientUnits="userSpaceOnUse" r="21.166656" xlink:href="#b"/><path d="m8.601562 27.9375h2.644532v1.46875h-2.644532zm0 0" fill="url(#a)"/><path d="m11.246094 28.035156h2.644531v-1.324218h-2.644531zm0 0" fill="url(#c)"/><path d="m8.601562 28.035156h-2.648437v1.320313h2.648437zm0 0" fill="url(#d)"/><path d="m8.601562 28.035156h-2.648437v-1.324218h2.648437zm0 0" fill="url(#e)"/><path d="m11.246094 28.035156h2.644531v1.320313h-2.644531zm0 0" fill="url(#f)"/><path d="m9.875 2.902344c-.414062.015625-.796875.226562-1.035156.566406l-5.953125 8.601562c-.605469.871094.019531 2.066407 1.082031 2.066407h2.652344v12.574219c0 .726562.589844 1.316406 1.316406 1.316406h3.96875c.726562 0 1.316406-.589844 1.316406-1.316406v-12.574219h2.652344c1.0625 0 1.6875-1.195313 1.085938-2.066407l-5.957032-8.601562c-.253906-.367188-.679687-.582031-1.128906-.566406zm0 0" fill="url(#g)"/><path d="m21.789062 28.027344c-.414062-.015625-.796874-.226563-1.035156-.566406l-5.953125-8.601563c-.605469-.871094.019531-2.066406 1.082031-2.066406h2.652344v-12.574219c0-.726562.589844-1.316406 1.316406-1.316406h3.96875c.726563 0 1.316407.589844 1.316407 1.316406v12.574219h2.652343c1.0625 0 1.6875 1.195312 1.082032 2.066406l-5.953125 8.601563c-.253907.367187-.679688.582031-1.128907.566406zm0 0" fill="url(#h)"/><path d="m9.917969 2.902344c-.011719 0-.027344 0-.042969 0-.414062.015625-.796875.226562-1.035156.566406l-5.953125 8.601562c-.214844.3125-.273438.664063-.214844.988282.035156-.171875.105469-.339844.214844-.5l5.953125-8.601563c.238281-.339843.621094-.550781 1.035156-.566406.449219-.015625.875.199219 1.128906.566406l5.957032 8.601563c.109374.160156.179687.328125.210937.5.0625-.324219.003906-.675782-.210937-.988282l-5.957032-8.601562c-.246094-.355469-.652344-.566406-1.085937-.566406zm0 0" fill="#fff" fill-opacity=".392157"/><path d="m19.851562 2.902344c-.726562 0-1.316406.589844-1.316406 1.316406v.488281c0-.726562.589844-1.316406 1.316406-1.316406h3.96875c.726563 0 1.316407.589844 1.316407 1.316406v-.488281c0-.726562-.589844-1.316406-1.316407-1.316406zm-3.96875 13.890625c-.867187 0-1.445312.796875-1.296874 1.566406.113281-.582031.613281-1.074219 1.296874-1.074219h2.652344v-.492187zm9.253907 0v.492187h2.652343c.683594 0 1.183594.492188 1.296876 1.074219.148437-.769531-.429688-1.566406-1.296876-1.566406zm0 0" fill="#fff" fill-opacity=".313726"/><path d="m2.691406 12.488281c-.207031.792969.378906 1.648438 1.277344 1.648438h2.652344v-.65625h-2.652344c-.648438 0-1.136719-.445313-1.277344-.992188zm14.460938 0c-.140625.546875-.625.992188-1.277344.992188h-2.652344v.65625h2.652344c.902344 0 1.484375-.855469 1.277344-1.648438zm-10.53125 13.566407v.65625c0 .726562.589844 1.316406 1.316406 1.316406h3.96875c.726562 0 1.316406-.589844 1.316406-1.316406v-.65625c0 .730468-.589844 1.320312-1.316406 1.320312h-3.96875c-.726562 0-1.316406-.589844-1.316406-1.320312zm0 0" fill-opacity=".235294"/><path d="m14.605469 17.785156c-.089844.347656-.039063.734375.195312 1.074219l5.953125 8.601563c.238282.339843.621094.550781 1.035156.566406.449219.015625.875-.199219 1.128907-.566406l5.953125-8.601563c.238281-.339844.285156-.726563.195312-1.074219-.039062.144532-.101562.285156-.195312.421875l-5.953125 8.597657c-.253907.371093-.679688.582031-1.128907.566406-.414062-.011719-.796874-.222656-1.035156-.566406l-5.953125-8.597657c-.09375-.136719-.15625-.277343-.195312-.421875zm0 0" fill-opacity=".235294"/><path d="m157.984913-168.566934c-6.624367.249976-12.748782 3.624654-16.560918 9.061635l-95.240905 137.611858c-9.686575 13.936169.31247 33.059343 17.310847 33.059343h42.433447v201.16829c0 11.62389 9.436599 21.060488 21.060489 21.060488h63.493937c11.62389 0 21.060489-9.436598 21.060489-21.060488v-201.16829h42.433448c16.998376 0 26.997421-19.123174 17.37334-33.059343l-95.303399-137.611858c-4.062112-5.874439-10.873961-9.311611-18.060775-9.061635zm0 0" fill="none" stroke="#212121" stroke-linecap="round" stroke-linejoin="round" stroke-width="3" transform="matrix(.062506 0 0 .062506 0 13.438783)"/><path d="m348.591711 233.39468c-6.624367-.249976-12.748782-3.624653-16.560918-9.061634l-95.240905-137.611859c-9.686575-13.936169.31247-33.059343 17.310847-33.059343h42.433447v-201.168289c0-11.62389 9.436599-21.060489 21.060489-21.060489h63.493937c11.62389 0 21.060489 9.436599 21.060489 21.060489v201.168289h42.433447c16.998377 0 26.997422 19.123174 17.310847 33.059343l-95.240905 137.611859c-4.062112 5.874439-10.873961 9.311611-18.060775 9.061634zm0 0" fill="none" stroke="#212121" stroke-linecap="round" stroke-linejoin="round" stroke-width="3" transform="matrix(.062506 0 0 .062506 0 13.438783)"/><path d="m21.832031 28.035156h1.984375v-1.324218h-1.984375zm0 0" fill="url(#i)"/><path d="m21.832031 28.035156h-1.988281v1.320313h1.988281zm0 0" fill="url(#j)"/><path d="m21.832031 28.035156h-1.988281v-1.324218h1.988281zm0 0" fill="url(#k)"/><path d="m21.832031 28.035156h1.984375v1.320313h-1.984375zm0 0" fill="url(#l)"/></svg>

<?xml version="1.0" encoding="UTF-8"?>
<svg xmlns="http://www.w3.org/2000/svg" xmlns:xlink="http://www.w3.org/1999/xlink" width="32px" height="32px" viewBox="0 0 32 32" version="1.1">
<defs>
<linearGradient id="linear0" gradientUnits="userSpaceOnUse" x1="254" y1="233.5" x2="254" y2="254.666672" gradientTransform="matrix(0.00833413,0,0,0.062506,7.805955,13.438785)">
<stop offset="0" style="stop-color:rgb(0%,0%,0%);stop-opacity:0.27451;"/>
<stop offset="1" style="stop-color:rgb(0%,0%,0%);stop-opacity:0;"/>
</linearGradient>
<radialGradient id="radial0" gradientUnits="userSpaceOnUse" cx="450.908936" cy="189.579361" fx="450.908936" fy="189.579361" r="21.166656" gradientTransform="matrix(0.00000017417,-0.0781325,-0.140638,-0.000000101539,37.577176,63.595333)">
<stop offset="0" style="stop-color:rgb(0%,0%,0%);stop-opacity:0.313726;"/>
<stop offset="0.222222" style="stop-color:rgb(0%,0%,0%);stop-opacity:0.27451;"/>
<stop offset="1" style="stop-color:rgb(0%,0%,0%);stop-opacity:0;"/>
</radialGradient>
<radialGradient id="radial1" gradientUnits="userSpaceOnUse" cx="450.908936" cy="189.579361" fx="450.908936" fy="189.579361" r="21.166656" gradientTransform="matrix(-0.00000017417,0.0781325,0.140638,0.000000101539,-17.731532,-7.527479)">
<stop offset="0" style="stop-color:rgb(0%,0%,0%);stop-opacity:0.313726;"/>
<stop offset="0.222222" style="stop-color:rgb(0%,0%,0%);stop-opacity:0.27451;"/>
<stop offset="1" style="stop-color:rgb(0%,0%,0%);stop-opacity:0;"/>
</radialGradient>
<radialGradient id="radial2" gradientUnits="userSpaceOnUse" cx="450.908936" cy="189.579361" fx="450.908936" fy="189.579361" r="21.166656" gradientTransform="matrix(-0.00000017417,-0.0781325,0.140638,-0.000000101539,-17.731532,63.595333)">
<stop offset="0" style="stop-color:rgb(0%,0%,0%);stop-opacity:0.313726;"/>
<stop offset="0.222222" style="stop-color:rgb(0%,0%,0%);stop-opacity:0.27451;"/>
<stop offset="1" style="stop-color:rgb(0%,0%,0%);stop-opacity:0;"/>
</radialGradient>
<radialGradient id="radial3" gradientUnits="userSpaceOnUse" cx="450.908936" cy="189.579361" fx="450.908936" fy="189.579361" r="21.166656" gradientTransform="matrix(0.00000017417,0.0781325,-0.140638,0.000000101539,37.577174,-7.527479)">
<stop offset="0" style="stop-color:rgb(0%,0%,0%);stop-opacity:0.313726;"/>
<stop offset="0.222222" style="stop-color:rgb(0%,0%,0%);stop-opacity:0.27451;"/>
<stop offset="1" style="stop-color:rgb(0%,0%,0%);stop-opacity:0;"/>
</radialGradient>
<linearGradient id="linear1" gradientUnits="userSpaceOnUse" x1="158.75" y1="233.5" x2="158.75" y2="-168.666672" gradientTransform="matrix(0.062506,0,0,0.062506,0,13.438783)">
<stop offset="0" style="stop-color:rgb(40.000001%,73.333335%,41.568628%);stop-opacity:1;"/>
<stop offset="1" style="stop-color:rgb(50.588238%,78.039217%,51.764709%);stop-opacity:1;"/>
</linearGradient>
<linearGradient id="linear2" gradientUnits="userSpaceOnUse" x1="349.25" y1="233.5" x2="349.25" y2="-168.666656" gradientTransform="matrix(0.062506,0,0,0.062506,0,13.438783)">
<stop offset="0" style="stop-color:rgb(95.686275%,26.274511%,21.176471%);stop-opacity:1;"/>
<stop offset="1" style="stop-color:rgb(93.725491%,32.549021%,31.37255%);stop-opacity:1;"/>
</linearGradient>
<radialGradient id="radial4" gradientUnits="userSpaceOnUse" cx="450.908936" cy="189.579361" fx="450.908936" fy="189.579361" r="21.166656" gradientTransform="matrix(0.000000130628,-0.0781325,-0.105479,-0.000000101539,41.578689,63.595333)">
<stop offset="0" style="stop-color:rgb(0%,0%,0%);stop-opacity:0.313726;"/>
<stop offset="0.222222" style="stop-color:rgb(0%,0%,0%);stop-opacity:0.27451;"/>
<stop offset="1" style="stop-color:rgb(0%,0%,0%);stop-opacity:0;"/>
</radialGradient>
<radialGradient id="radial5" gradientUnits="userSpaceOnUse" cx="450.908936" cy="189.579361" fx="450.908936" fy="189.579361" r="21.166656" gradientTransform="matrix(-0.000000130628,0.0781325,0.105479,0.000000101539,2.08173,-7.527479)">
<stop offset="0" style="stop-color:rgb(0%,0%,0%);stop-opacity:0.313726;"/>
<stop offset="0.222222" style="stop-color:rgb(0%,0%,0%);stop-opacity:0.27451;"/>
<stop offset="1" style="stop-color:rgb(0%,0%,0%);stop-opacity:0;"/>
</radialGradient>
<radialGradient id="radial6" gradientUnits="userSpaceOnUse" cx="450.908936" cy="189.579361" fx="450.908936" fy="189.579361" r="21.166656" gradientTransform="matrix(-0.000000130628,-0.0781325,0.105479,-0.000000101539,2.08173,63.595333)">
<stop offset="0" style="stop-color:rgb(0%,0%,0%);stop-opacity:0.313726;"/>
<stop offset="0.222222" style="stop-color:rgb(0%,0%,0%);stop-opacity:0.27451;"/>
<stop offset="1" style="stop-color:rgb(0%,0%,0%);stop-opacity:0;"/>
</radialGradient>
<radialGradient id="radial7" gradientUnits="userSpaceOnUse" cx="450.908936" cy="189.579361" fx="450.908936" fy="189.579361" r="21.166656" gradientTransform="matrix(0.000000130628,0.0781325,-0.105479,0.000000101539,41.578688,-7.527479)">
<stop offset="0" style="stop-color:rgb(0%,0%,0%);stop-opacity:0.313726;"/>
<stop offset="0.222222" style="stop-color:rgb(0%,0%,0%);stop-opacity:0.27451;"/>
<stop offset="1" style="stop-color:rgb(0%,0%,0%);stop-opacity:0;"/>
</radialGradient>
</defs>
<g id="surface1">
<path style=" stroke:none;fill-rule:nonzero;fill:url(#linear0);" d="M 8.601562 27.9375 L 11.246094 27.9375 L 11.246094 29.40625 L 8.601562 29.40625 Z M 8.601562 27.9375 "/>
<path style=" stroke:none;fill-rule:nonzero;fill:url(#radial0);" d="M 11.246094 28.035156 L 13.890625 28.035156 L 13.890625 26.710938 L 11.246094 26.710938 Z M 11.246094 28.035156 "/>
<path style=" stroke:none;fill-rule:nonzero;fill:url(#radial1);" d="M 8.601562 28.035156 L 5.953125 28.035156 L 5.953125 29.355469 L 8.601562 29.355469 Z M 8.601562 28.035156 "/>
<path style=" stroke:none;fill-rule:nonzero;fill:url(#radial2);" d="M 8.601562 28.035156 L 5.953125 28.035156 L 5.953125 26.710938 L 8.601562 26.710938 Z M 8.601562 28.035156 "/>
<path style=" stroke:none;fill-rule:nonzero;fill:url(#radial3);" d="M 11.246094 28.035156 L 13.890625 28.035156 L 13.890625 29.355469 L 11.246094 29.355469 Z M 11.246094 28.035156 "/>
<path style=" stroke:none;fill-rule:nonzero;fill:url(#linear1);" d="M 9.875 2.902344 C 9.460938 2.917969 9.078125 3.128906 8.839844 3.46875 L 2.886719 12.070312 C 2.28125 12.941406 2.90625 14.136719 3.96875 14.136719 L 6.621094 14.136719 L 6.621094 26.710938 C 6.621094 27.4375 7.210938 28.027344 7.9375 28.027344 L 11.90625 28.027344 C 12.632812 28.027344 13.222656 27.4375 13.222656 26.710938 L 13.222656 14.136719 L 15.875 14.136719 C 16.9375 14.136719 17.5625 12.941406 16.960938 12.070312 L 11.003906 3.46875 C 10.75 3.101562 10.324219 2.886719 9.875 2.902344 Z M 9.875 2.902344 "/>
<path style=" stroke:none;fill-rule:nonzero;fill:url(#linear2);" d="M 21.789062 28.027344 C 21.375 28.011719 20.992188 27.800781 20.753906 27.460938 L 14.800781 18.859375 C 14.195312 17.988281 14.820312 16.792969 15.882812 16.792969 L 18.535156 16.792969 L 18.535156 4.21875 C 18.535156 3.492188 19.125 2.902344 19.851562 2.902344 L 23.820312 2.902344 C 24.546875 2.902344 25.136719 3.492188 25.136719 4.21875 L 25.136719 16.792969 L 27.789062 16.792969 C 28.851562 16.792969 29.476562 17.988281 28.871094 18.859375 L 22.917969 27.460938 C 22.664062 27.828125 22.238281 28.042969 21.789062 28.027344 Z M 21.789062 28.027344 "/>
<path style=" stroke:none;fill-rule:nonzero;fill:rgb(100%,100%,100%);fill-opacity:0.392157;" d="M 9.917969 2.902344 C 9.90625 2.902344 9.890625 2.902344 9.875 2.902344 C 9.460938 2.917969 9.078125 3.128906 8.839844 3.46875 L 2.886719 12.070312 C 2.671875 12.382812 2.613281 12.734375 2.671875 13.058594 C 2.707031 12.886719 2.777344 12.71875 2.886719 12.558594 L 8.839844 3.957031 C 9.078125 3.617188 9.460938 3.40625 9.875 3.390625 C 10.324219 3.375 10.75 3.589844 11.003906 3.957031 L 16.960938 12.558594 C 17.070312 12.71875 17.140625 12.886719 17.171875 13.058594 C 17.234375 12.734375 17.175781 12.382812 16.960938 12.070312 L 11.003906 3.46875 C 10.757812 3.113281 10.351562 2.902344 9.917969 2.902344 Z M 9.917969 2.902344 "/>
<path style=" stroke:none;fill-rule:nonzero;fill:rgb(100%,100%,100%);fill-opacity:0.313726;" d="M 19.851562 2.902344 C 19.125 2.902344 18.535156 3.492188 18.535156 4.21875 L 18.535156 4.707031 C 18.535156 3.980469 19.125 3.390625 19.851562 3.390625 L 23.820312 3.390625 C 24.546875 3.390625 25.136719 3.980469 25.136719 4.707031 L 25.136719 4.21875 C 25.136719 3.492188 24.546875 2.902344 23.820312 2.902344 Z M 15.882812 16.792969 C 15.015625 16.792969 14.4375 17.589844 14.585938 18.359375 C 14.699219 17.777344 15.199219 17.285156 15.882812 17.285156 L 18.535156 17.285156 L 18.535156 16.792969 Z M 25.136719 16.792969 L 25.136719 17.285156 L 27.789062 17.285156 C 28.472656 17.285156 28.972656 17.777344 29.085938 18.359375 C 29.234375 17.589844 28.65625 16.792969 27.789062 16.792969 Z M 25.136719 16.792969 "/>
<path style=" stroke:none;fill-rule:nonzero;fill:rgb(0%,0%,0%);fill-opacity:0.235294;" d="M 2.691406 12.488281 C 2.484375 13.28125 3.070312 14.136719 3.96875 14.136719 L 6.621094 14.136719 L 6.621094 13.480469 L 3.96875 13.480469 C 3.320312 13.480469 2.832031 13.035156 2.691406 12.488281 Z M 17.152344 12.488281 C 17.011719 13.035156 16.527344 13.480469 15.875 13.480469 L 13.222656 13.480469 L 13.222656 14.136719 L 15.875 14.136719 C 16.777344 14.136719 17.359375 13.28125 17.152344 12.488281 Z M 6.621094 26.054688 L 6.621094 26.710938 C 6.621094 27.4375 7.210938 28.027344 7.9375 28.027344 L 11.90625 28.027344 C 12.632812 28.027344 13.222656 27.4375 13.222656 26.710938 L 13.222656 26.054688 C 13.222656 26.785156 12.632812 27.375 11.90625 27.375 L 7.9375 27.375 C 7.210938 27.375 6.621094 26.785156 6.621094 26.054688 Z M 6.621094 26.054688 "/>
<path style=" stroke:none;fill-rule:nonzero;fill:rgb(0%,0%,0%);fill-opacity:0.235294;" d="M 14.605469 17.785156 C 14.515625 18.132812 14.566406 18.519531 14.800781 18.859375 L 20.753906 27.460938 C 20.992188 27.800781 21.375 28.011719 21.789062 28.027344 C 22.238281 28.042969 22.664062 27.828125 22.917969 27.460938 L 28.871094 18.859375 C 29.109375 18.519531 29.15625 18.132812 29.066406 17.785156 C 29.027344 17.929688 28.964844 18.070312 28.871094 18.207031 L 22.917969 26.804688 C 22.664062 27.175781 22.238281 27.386719 21.789062 27.371094 C 21.375 27.359375 20.992188 27.148438 20.753906 26.804688 L 14.800781 18.207031 C 14.707031 18.070312 14.644531 17.929688 14.605469 17.785156 Z M 14.605469 17.785156 "/>
<path style="fill:none;stroke-width:3;stroke-linecap:round;stroke-linejoin:round;stroke:rgb(12.941177%,12.941177%,12.941177%);stroke-opacity:1;stroke-miterlimit:4;" d="M 157.984913 -168.566934 C 151.360546 -168.316958 145.236131 -164.94228 141.423995 -159.505299 L 46.18309 -21.893441 C 36.496515 -7.957272 46.49556 11.165902 63.493937 11.165902 L 105.927384 11.165902 L 105.927384 212.334192 C 105.927384 223.958082 115.363983 233.39468 126.987873 233.39468 L 190.48181 233.39468 C 202.1057 233.39468 211.542299 223.958082 211.542299 212.334192 L 211.542299 11.165902 L 253.975747 11.165902 C 270.974123 11.165902 280.973168 -7.957272 271.349087 -21.893441 L 176.045688 -159.505299 C 171.983576 -165.379738 165.171727 -168.81691 157.984913 -168.566934 Z M 157.984913 -168.566934 " transform="matrix(0.062506,0,0,0.062506,0,13.438783)"/>
<path style="fill:none;stroke-width:3;stroke-linecap:round;stroke-linejoin:round;stroke:rgb(12.941177%,12.941177%,12.941177%);stroke-opacity:1;stroke-miterlimit:4;" d="M 348.591711 233.39468 C 341.967344 233.144704 335.842929 229.770027 332.030793 224.333046 L 236.789888 86.721187 C 227.103313 72.785018 237.102358 53.661844 254.100735 53.661844 L 296.534182 53.661844 L 296.534182 -147.506445 C 296.534182 -159.130335 305.970781 -168.566934 317.594671 -168.566934 L 381.088608 -168.566934 C 392.712498 -168.566934 402.149097 -159.130335 402.149097 -147.506445 L 402.149097 53.661844 L 444.582544 53.661844 C 461.580921 53.661844 471.579966 72.785018 461.893391 86.721187 L 366.652486 224.333046 C 362.590374 230.207485 355.778525 233.644657 348.591711 233.39468 Z M 348.591711 233.39468 " transform="matrix(0.062506,0,0,0.062506,0,13.438783)"/>
<path style=" stroke:none;fill-rule:nonzero;fill:url(#radial4);" d="M 21.832031 28.035156 L 23.816406 28.035156 L 23.816406 26.710938 L 21.832031 26.710938 Z M 21.832031 28.035156 "/>
<path style=" stroke:none;fill-rule:nonzero;fill:url(#radial5);" d="M 21.832031 28.035156 L 19.84375 28.035156 L 19.84375 29.355469 L 21.832031 29.355469 Z M 21.832031 28.035156 "/>
<path style=" stroke:none;fill-rule:nonzero;fill:url(#radial6);" d="M 21.832031 28.035156 L 19.84375 28.035156 L 19.84375 26.710938 L 21.832031 26.710938 Z M 21.832031 28.035156 "/>
<path style=" stroke:none;fill-rule:nonzero;fill:url(#radial7);" d="M 21.832031 28.035156 L 23.816406 28.035156 L 23.816406 29.355469 L 21.832031 29.355469 Z M 21.832031 28.035156 "/>
</g>
</svg>
